assets/logos/mageia.svg

<svg class="typst-doc" viewBox="0 0 86.58645669291339 137.2744566929134" width="86.58645669291339pt" height="137.2744566929134pt" xmlns="http://www.w3.org/2000/svg" xmlns:xlink="http://www.w3.org/1999/xlink" xmlns:h5="http://www.w3.org/1999/xhtml">
    <path class="typst-shape" fill="#ffffff" fill-rule="nonzero" d="M 0 0v 137.27446 h 86.58646 v -137.27446 Z "/>
    <g>
        <g class="typst-group" transform="matrix(1 0 0 1 14.173228346456693 14.173228346456693)">
            <g>
                <path class="typst-shape" fill="#000000" fill-rule="nonzero" d="M 0 0m 0 5 c 0 -2.7614238 2.2385762 -5 5 -5 h 48.24 c 2.7614212 0 5 2.2385762 5 5 v 98.928 c 0 2.7614212 -2.2385788 5 -5 5 h -48.24 c -2.7614238 0 -5 -2.2385788 -5 -5 Z "/>
                <g class="typst-group" transform="matrix(1 0 0 1 8 19.616)">
                    <g/>
                </g>
                <g class="typst-group" transform="matrix(1 0 0 1 8 19.616)">
                    <g/>
                </g>
                <g class="typst-group" transform="matrix(1 0 0 1 8 8)">
                    <g>
                        <g class="typst-text" transform="matrix(1 0 0 -1 0 8.976000000000003)">
                            <use xlink:href="#g73844AEACD1F735BA3E0A045A5FAC82D" x="15.84" y="0" fill="#00ffff" fill-rule="nonzero"/>
                        </g>
                    </g>
                </g>
                <g class="typst-group" transform="matrix(1 0 0 1 50.24 8)">
                    <g/>
                </g>
                <g class="typst-group" transform="matrix(1 0 0 1 8 31.232000000000003)">
                    <g/>
                </g>
                <g class="typst-group" transform="matrix(1 0 0 1 8 31.232000000000003)">
                    <g/>
                </g>
                <g class="typst-group" transform="matrix(1 0 0 1 8 31.232000000000003)">
                    <g/>
                </g>
                <g class="typst-group" transform="matrix(1 0 0 1 8 19.616)">
                    <g>
                        <g class="typst-text" transform="matrix(1 0 0 -1 0 8.976000000000003)">
                            <use xlink:href="#g73844AEACD1F735BA3E0A045A5FAC82D" x="21.12" y="0" fill="#00ffff" fill-rule="nonzero"/>
                        </g>
                    </g>
                </g>
                <g class="typst-group" transform="matrix(1 0 0 1 50.24 19.616)">
                    <g/>
                </g>
                <g class="typst-group" transform="matrix(1 0 0 1 8 42.848000000000006)">
                    <g/>
                </g>
                <g class="typst-group" transform="matrix(1 0 0 1 8 42.848000000000006)">
                    <g/>
                </g>
                <g class="typst-group" transform="matrix(1 0 0 1 8 42.848000000000006)">
                    <g/>
                </g>
                <g class="typst-group" transform="matrix(1 0 0 1 8 31.232000000000003)">
                    <g>
                        <g class="typst-text" transform="matrix(1 0 0 -1 0 8.976000000000003)">
                            <use xlink:href="#g73844AEACD1F735BA3E0A045A5FAC82D" x="15.84" y="0" fill="#00ffff" fill-rule="nonzero"/>
                            <use xlink:href="#g73844AEACD1F735BA3E0A045A5FAC82D" x="21.12" y="0" fill="#00ffff" fill-rule="nonzero"/>
                        </g>
                    </g>
                </g>
                <g class="typst-group" transform="matrix(1 0 0 1 50.24 31.232000000000003)">
                    <g/>
                </g>
                <g class="typst-group" transform="matrix(1 0 0 1 8 54.464000000000006)">
                    <g/>
                </g>
                <g class="typst-group" transform="matrix(1 0 0 1 8 54.464000000000006)">
                    <g/>
                </g>
                <g class="typst-group" transform="matrix(1 0 0 1 8 54.464000000000006)">
                    <g/>
                </g>
                <g class="typst-group" transform="matrix(1 0 0 1 8 42.848000000000006)">
                    <g>
                        <g class="typst-text" transform="matrix(1 0 0 -1 0 8.976000000000003)">
                            <use xlink:href="#g4EE50823DE1072B888352BF5ED93E90B" x="5.28" y="0" fill="#ffffff" fill-rule="nonzero"/>
                            <use xlink:href="#g553CA0615203AE7EF2B51E16776E3FE0" x="10.56" y="0" fill="#ffffff" fill-rule="nonzero"/>
                            <use xlink:href="#g363496F2D5142F8F4982DAF4CE1D3779" x="21.12" y="0" fill="#ffffff" fill-rule="nonzero"/>
                            <use xlink:href="#g4EE50823DE1072B888352BF5ED93E90B" x="26.400000000000002" y="0" fill="#ffffff" fill-rule="nonzero"/>
                            <use xlink:href="#g553CA0615203AE7EF2B51E16776E3FE0" x="31.680000000000003" y="0" fill="#ffffff" fill-rule="nonzero"/>
                        </g>
                    </g>
                </g>
                <g class="typst-group" transform="matrix(1 0 0 1 50.24 42.848000000000006)">
                    <g/>
                </g>
                <g class="typst-group" transform="matrix(1 0 0 1 8 66.08)">
                    <g/>
                </g>
                <g class="typst-group" transform="matrix(1 0 0 1 8 66.08)">
                    <g/>
                </g>
                <g class="typst-group" transform="matrix(1 0 0 1 8 66.08)">
                    <g/>
                </g>
                <g class="typst-group" transform="matrix(1 0 0 1 8 54.464000000000006)">
                    <g>
                        <g class="typst-text" transform="matrix(1 0 0 -1 0 8.976000000000003)">
                            <use xlink:href="#g4EE50823DE1072B888352BF5ED93E90B" x="0" y="0" fill="#ffffff" fill-rule="nonzero"/>
                            <use xlink:href="#g553CA0615203AE7EF2B51E16776E3FE0" x="36.96" y="0" fill="#ffffff" fill-rule="nonzero"/>
                        </g>
                    </g>
                </g>
                <g class="typst-group" transform="matrix(1 0 0 1 50.24 54.464000000000006)">
                    <g/>
                </g>
                <g class="typst-group" transform="matrix(1 0 0 1 8 77.69600000000001)">
                    <g/>
                </g>
                <g class="typst-group" transform="matrix(1 0 0 1 8 77.69600000000001)">
                    <g/>
                </g>
                <g class="typst-group" transform="matrix(1 0 0 1 8 77.69600000000001)">
                    <g/>
                </g>
                <g class="typst-group" transform="matrix(1 0 0 1 8 66.08)">
                    <g>
                        <g class="typst-text" transform="matrix(1 0 0 -1 0 8.976000000000003)">
                            <use xlink:href="#g553CA0615203AE7EF2B51E16776E3FE0" x="0" y="0" fill="#ffffff" fill-rule="nonzero"/>
                            <use xlink:href="#g4EE50823DE1072B888352BF5ED93E90B" x="36.96" y="0" fill="#ffffff" fill-rule="nonzero"/>
                        </g>
                    </g>
                </g>
                <g class="typst-group" transform="matrix(1 0 0 1 50.24 66.08)">
                    <g/>
                </g>
                <g class="typst-group" transform="matrix(1 0 0 1 8 89.31200000000001)">
                    <g/>
                </g>
                <g class="typst-group" transform="matrix(1 0 0 1 8 89.31200000000001)">
                    <g/>
                </g>
                <g class="typst-group" transform="matrix(1 0 0 1 8 89.31200000000001)">
                    <g/>
                </g>
                <g class="typst-group" transform="matrix(1 0 0 1 8 77.69600000000001)">
                    <g>
                        <g class="typst-text" transform="matrix(1 0 0 -1 0 8.976000000000003)">
                            <use xlink:href="#g553CA0615203AE7EF2B51E16776E3FE0" x="5.28" y="0" fill="#ffffff" fill-rule="nonzero"/>
                            <use xlink:href="#gB3CB5C71C376FEAC35A5CE3E9D70B056" x="10.56" y="0" fill="#ffffff" fill-rule="nonzero"/>
                            <use xlink:href="#gB3CB5C71C376FEAC35A5CE3E9D70B056" x="15.84" y="0" fill="#ffffff" fill-rule="nonzero"/>
                            <use xlink:href="#gB3CB5C71C376FEAC35A5CE3E9D70B056" x="21.12" y="0" fill="#ffffff" fill-rule="nonzero"/>
                            <use xlink:href="#gB3CB5C71C376FEAC35A5CE3E9D70B056" x="26.400000000000002" y="0" fill="#ffffff" fill-rule="nonzero"/>
                            <use xlink:href="#g4EE50823DE1072B888352BF5ED93E90B" x="31.680000000000003" y="0" fill="#ffffff" fill-rule="nonzero"/>
                        </g>
                    </g>
                </g>
                <g class="typst-group" transform="matrix(1 0 0 1 50.24 77.69600000000001)">
                    <g/>
                </g>
                <g class="typst-group" transform="matrix(1 0 0 1 8 89.31200000000001)">
                    <g/>
                </g>
                <g class="typst-group" transform="matrix(1 0 0 1 8 100.92800000000001)">
                    <g/>
                </g>
            </g>
        </g>
    </g>
    <defs id="glyph">
        <symbol id="g73844AEACD1F735BA3E0A045A5FAC82D" overflow="visible">
            <path d="M 0 0m 1.6104 0.8624 l -0.73039997 0.5192 l 0.61600006 0.87119997 q 0.12319994 0.17600012 0.27719998 0.33879995 q 0.15399992 0.16280007 0.32999992 0.3124001 q -0.4663999 0.04399991 -0.82719994 0.17599988 l -0.9944 0.36960006 l 0.30799997 0.8360002 l 0.9944 -0.36080027 q 0.352 -0.13199997 0.73039997 -0.37839985 q -0.05279994 0.20239997 -0.08800006 0.40919995 q -0.03519988 0.20679975 -0.03519988 0.43560004 v 1.0647998 h 0.89759994 v -1.0647998 q 0 -0.2288003 -0.03519988 -0.43560004 q -0.03520012 -0.20679998 -0.09680009 -0.40919995 q 0.38719988 0.24639988 0.7392001 0.37839985 l 0.9944 0.36080027 l 0.3079996 -0.8360002 l -0.99439955 -0.36960006 q -0.36080027 -0.13199997 -0.8272002 -0.17599988 q 0.17599988 -0.14960003 0.32999992 -0.3124001 q 0.15400004 -0.16279984 0.27719998 -0.33879995 l 0.6160002 -0.87119997 l -0.7304001 -0.5192 l -0.62479997 0.8712 q -0.12320018 0.176 -0.22440004 0.37399995 q -0.101200104 0.19799995 -0.18040013 0.40919995 q -0.07919979 -0.20239997 -0.1803999 -0.40479994 q -0.101200104 -0.20239997 -0.22440004 -0.37839997 l -0.62479997 -0.8712 Z "/>
        </symbol>
        <symbol id="g4EE50823DE1072B888352BF5ED93E90B" overflow="visible">
            <path d="M 0 0m 0.528 -0.968 l 3.08 8.272 h 1.1439998 l -3.08 -8.272 h -1.1439999 Z "/>
        </symbol>
        <symbol id="g553CA0615203AE7EF2B51E16776E3FE0" overflow="visible">
            <path d="M 0 0m 3.5992 -0.968 l -3.0712 8.272 h 1.1439999 l 3.0712 -8.272 h -1.1439998 Z "/>
        </symbol>
        <symbol id="g363496F2D5142F8F4982DAF4CE1D3779" overflow="visible">
            <path d="M 0 0m -4.752 -1.2144 v 0.9944 h 9.504 v -0.9944 h -9.504 Z "/>
        </symbol>
        <symbol id="gB3CB5C71C376FEAC35A5CE3E9D70B056" overflow="visible">
            <path d="M 0 0m 0.528 -1.2144 v 0.9944 h 4.224 v -0.9944 h -4.224 Z "/>
        </symbol>
    </defs>
</svg>

<svg class="typst-doc" viewBox="0 0 86.5865 137.27450000000002" width="86.5865" height="137.27450000000002" xmlns="http://www.w3.org/2000/svg" xmlns:xlink="http://www.w3.org/1999/xlink" xmlns:h5="http://www.w3.org/1999/xhtml">
    <g>
        <g transform="translate(14.17325 14.17325)">
            <g class="typst-group">
                <g>
                    <g transform="translate(-0 -0)">
                        <path class="typst-shape" fill="#000000" d="M 0 5 C 0 2.2385762 2.2385762 0 5 0 L 53.24 0 C 56.001423 0 58.24 2.2385762 58.24 5 L 58.24 103.928 C 58.24 106.68942 56.001423 108.928 53.24 108.928 L 5 108.928 C 2.2385762 108.928 0 106.68942 0 103.928 Z "/>
                    </g>
                    <g transform="translate(8 19.616)">
                        <g class="typst-group">
                            <g/>
                        </g>
                    </g>
                    <g transform="translate(8 19.616)">
                        <g class="typst-group">
                            <g/>
                        </g>
                    </g>
                    <g transform="translate(8 8)">
                        <g class="typst-group">
                            <g>
                                <g transform="translate(0 8.976)">
                                    <g class="typst-text" transform="scale(1, -1)">
                                        <use xlink:href="#g41756CD5DCDECFA8CA5D95F4B6487630" x="15.84" fill="#00ffff"/>
                                    </g>
                                </g>
                            </g>
                        </g>
                    </g>
                    <g transform="translate(50.24 8)">
                        <g class="typst-group">
                            <g/>
                        </g>
                    </g>
                    <g transform="translate(8 31.232000000000003)">
                        <g class="typst-group">
                            <g/>
                        </g>
                    </g>
                    <g transform="translate(8 31.232000000000003)">
                        <g class="typst-group">
                            <g/>
                        </g>
                    </g>
                    <g transform="translate(8 31.232000000000003)">
                        <g class="typst-group">
                            <g/>
                        </g>
                    </g>
                    <g transform="translate(8 19.616)">
                        <g class="typst-group">
                            <g>
                                <g transform="translate(0 8.976)">
                                    <g class="typst-text" transform="scale(1, -1)">
                                        <use xlink:href="#g41756CD5DCDECFA8CA5D95F4B6487630" x="21.12" fill="#00ffff"/>
                                    </g>
                                </g>
                            </g>
                        </g>
                    </g>
                    <g transform="translate(50.24 19.616)">
                        <g class="typst-group">
                            <g/>
                        </g>
                    </g>
                    <g transform="translate(8 42.848000000000006)">
                        <g class="typst-group">
                            <g/>
                        </g>
                    </g>
                    <g transform="translate(8 42.848000000000006)">
                        <g class="typst-group">
                            <g/>
                        </g>
                    </g>
                    <g transform="translate(8 42.848000000000006)">
                        <g class="typst-group">
                            <g/>
                        </g>
                    </g>
                    <g transform="translate(8 31.232000000000003)">
                        <g class="typst-group">
                            <g>
                                <g transform="translate(0 8.976)">
                                    <g class="typst-text" transform="scale(1, -1)">
                                        <use xlink:href="#g41756CD5DCDECFA8CA5D95F4B6487630" x="15.84" fill="#00ffff"/>
                                        <use xlink:href="#g41756CD5DCDECFA8CA5D95F4B6487630" x="21.12" fill="#00ffff"/>
                                    </g>
                                </g>
                            </g>
                        </g>
                    </g>
                    <g transform="translate(50.24 31.232000000000003)">
                        <g class="typst-group">
                            <g/>
                        </g>
                    </g>
                    <g transform="translate(8 54.464000000000006)">
                        <g class="typst-group">
                            <g/>
                        </g>
                    </g>
                    <g transform="translate(8 54.464000000000006)">
                        <g class="typst-group">
                            <g/>
                        </g>
                    </g>
                    <g transform="translate(8 54.464000000000006)">
                        <g class="typst-group">
                            <g/>
                        </g>
                    </g>
                    <g transform="translate(8 42.848000000000006)">
                        <g class="typst-group">
                            <g>
                                <g transform="translate(0 8.976)">
                                    <g class="typst-text" transform="scale(1, -1)">
                                        <use xlink:href="#gEA462781DB655E9FC41D13FE877043C1" x="5.28" fill="#ffffff"/>
                                        <use xlink:href="#g40C668FB4E37D9F21E1980C2683B7C07" x="10.56" fill="#ffffff"/>
                                        <use xlink:href="#gC6C8A06ACA3F2258CFC932E1F8DC0306" x="21.12" fill="#ffffff"/>
                                        <use xlink:href="#gEA462781DB655E9FC41D13FE877043C1" x="26.400000000000002" fill="#ffffff"/>
                                        <use xlink:href="#g40C668FB4E37D9F21E1980C2683B7C07" x="31.680000000000003" fill="#ffffff"/>
                                    </g>
                                </g>
                            </g>
                        </g>
                    </g>
                    <g transform="translate(50.24 42.848000000000006)">
                        <g class="typst-group">
                            <g/>
                        </g>
                    </g>
                    <g transform="translate(8 66.08000000000001)">
                        <g class="typst-group">
                            <g/>
                        </g>
                    </g>
                    <g transform="translate(8 66.08000000000001)">
                        <g class="typst-group">
                            <g/>
                        </g>
                    </g>
                    <g transform="translate(8 66.08000000000001)">
                        <g class="typst-group">
                            <g/>
                        </g>
                    </g>
                    <g transform="translate(8 54.464000000000006)">
                        <g class="typst-group">
                            <g>
                                <g transform="translate(0 8.976)">
                                    <g class="typst-text" transform="scale(1, -1)">
                                        <use xlink:href="#gEA462781DB655E9FC41D13FE877043C1" x="0" fill="#ffffff"/>
                                        <use xlink:href="#g40C668FB4E37D9F21E1980C2683B7C07" x="36.96" fill="#ffffff"/>
                                    </g>
                                </g>
                            </g>
                        </g>
                    </g>
                    <g transform="translate(50.24 54.464000000000006)">
                        <g class="typst-group">
                            <g/>
                        </g>
                    </g>
                    <g transform="translate(8 77.69600000000001)">
                        <g class="typst-group">
                            <g/>
                        </g>
                    </g>
                    <g transform="translate(8 77.69600000000001)">
                        <g class="typst-group">
                            <g/>
                        </g>
                    </g>
                    <g transform="translate(8 77.69600000000001)">
                        <g class="typst-group">
                            <g/>
                        </g>
                    </g>
                    <g transform="translate(8 66.08000000000001)">
                        <g class="typst-group">
                            <g>
                                <g transform="translate(0 8.976)">
                                    <g class="typst-text" transform="scale(1, -1)">
                                        <use xlink:href="#g40C668FB4E37D9F21E1980C2683B7C07" x="0" fill="#ffffff"/>
                                        <use xlink:href="#gEA462781DB655E9FC41D13FE877043C1" x="36.96" fill="#ffffff"/>
                                    </g>
                                </g>
                            </g>
                        </g>
                    </g>
                    <g transform="translate(50.24 66.08000000000001)">
                        <g class="typst-group">
                            <g/>
                        </g>
                    </g>
                    <g transform="translate(8 89.31200000000001)">
                        <g class="typst-group">
                            <g/>
                        </g>
                    </g>
                    <g transform="translate(8 89.31200000000001)">
                        <g class="typst-group">
                            <g/>
                        </g>
                    </g>
                    <g transform="translate(8 89.31200000000001)">
                        <g class="typst-group">
                            <g/>
                        </g>
                    </g>
                    <g transform="translate(8 77.69600000000001)">
                        <g class="typst-group">
                            <g>
                                <g transform="translate(0 8.976)">
                                    <g class="typst-text" transform="scale(1, -1)">
                                        <use xlink:href="#g40C668FB4E37D9F21E1980C2683B7C07" x="5.28" fill="#ffffff"/>
                                        <use xlink:href="#g45C544E5050795A0DB9B642A0F86EEF6" x="10.56" fill="#ffffff"/>
                                        <use xlink:href="#g45C544E5050795A0DB9B642A0F86EEF6" x="15.84" fill="#ffffff"/>
                                        <use xlink:href="#g45C544E5050795A0DB9B642A0F86EEF6" x="21.12" fill="#ffffff"/>
                                        <use xlink:href="#g45C544E5050795A0DB9B642A0F86EEF6" x="26.400000000000002" fill="#ffffff"/>
                                        <use xlink:href="#gEA462781DB655E9FC41D13FE877043C1" x="31.680000000000003" fill="#ffffff"/>
                                    </g>
                                </g>
                            </g>
                        </g>
                    </g>
                    <g transform="translate(50.24 77.69600000000001)">
                        <g class="typst-group">
                            <g/>
                        </g>
                    </g>
                    <g transform="translate(8 89.31200000000001)">
                        <g class="typst-group">
                            <g/>
                        </g>
                    </g>
                    <g transform="translate(8 100.92800000000001)">
                        <g class="typst-group">
                            <g/>
                        </g>
                    </g>
                </g>
            </g>
        </g>
    </g>
    <defs id="glyph">
        <symbol id="g41756CD5DCDECFA8CA5D95F4B6487630" overflow="visible">
            <path d="M 1.6104 0.8624 L 0.88 1.3816 L 1.496 2.2528 Q 1.6192 2.4288 1.7732 2.5916 Q 1.9272 2.7544 2.1032 2.904 Q 1.6368 2.948 1.276 3.08 L 0.2816 3.4496 L 0.58959997 4.2856 L 1.584 3.9248 Q 1.936 3.7928 2.3144 3.5464 Q 2.2616 3.7488 2.2264 3.9556 Q 2.1912 4.1624 2.1912 4.3912 L 2.1912 5.456 L 3.0888 5.456 L 3.0888 4.3912 Q 3.0888 4.1624 3.0536 3.9556 Q 3.0184 3.7488 2.9568 3.5464 Q 3.3439999 3.7928 3.696 3.9248 L 4.6904 4.2856 L 4.9983997 3.4496 L 4.004 3.08 Q 3.6432 2.948 3.1768 2.904 Q 3.3528 2.7544 3.5068 2.5916 Q 3.6608 2.4288 3.784 2.2528 L 4.4 1.3816 L 3.6696 0.8624 L 3.0448 1.7336 Q 2.9215999 1.9096 2.8204 2.1076 Q 2.7192 2.3056 2.6399999 2.5168 Q 2.5608 2.3144 2.4596 2.112 Q 2.3583999 1.9096 2.2352 1.7336 L 1.6104 0.8624 Z "/>
        </symbol>
        <symbol id="gEA462781DB655E9FC41D13FE877043C1" overflow="visible">
            <path d="M 0.528 -0.968 L 3.608 7.304 L 4.752 7.304 L 1.6719999 -0.968 L 0.528 -0.968 Z "/>
        </symbol>
        <symbol id="g40C668FB4E37D9F21E1980C2683B7C07" overflow="visible">
            <path d="M 3.5992 -0.968 L 0.528 7.304 L 1.6719999 7.304 L 4.7432 -0.968 L 3.5992 -0.968 Z "/>
        </symbol>
        <symbol id="gC6C8A06ACA3F2258CFC932E1F8DC0306" overflow="visible">
            <path d="M -4.752 -1.2144 L -4.752 -0.22 L 4.752 -0.22 L 4.752 -1.2144 L -4.752 -1.2144 Z "/>
        </symbol>
        <symbol id="g45C544E5050795A0DB9B642A0F86EEF6" overflow="visible">
            <path d="M 0.528 -1.2144 L 0.528 -0.22 L 4.752 -0.22 L 4.752 -1.2144 L 0.528 -1.2144 Z "/>
        </symbol>
    </defs>
</svg>
